Numix/64/apps/goa-account-twitter.svg

<?xml version="1.0" encoding="UTF-8" standalone="yes"?>
<svg xmlns="http://www.w3.org/2000/svg" xmlns:xlink="http://www.w3.org/1999/xlink" width="64px" height="64px" viewBox="0 0 48 48" version="1.1">
  <g id="surface1">
    <path style=" stroke:none;fill-rule:nonzero;fill:rgb(0%,67.058824%,92.54902%);fill-opacity:1;" d="M 27.410156 12.84375 C 24.96875 13.753906 23.429688 16.09375 23.601562 18.652344 L 23.664062 19.640625 L 22.6875 19.519531 C 19.136719 19.058594 16.035156 17.484375 13.402344 14.84375 L 12.113281 13.53125 L 11.78125 14.5 C 11.078125 16.65625 11.527344 18.9375 12.992188 20.46875 C 13.769531 21.3125 13.597656 21.4375 12.25 20.929688 C 11.78125 20.769531 11.371094 20.648438 11.332031 20.710938 C 11.199219 20.851562 11.664062 22.6875 12.035156 23.414062 C 12.542969 24.421875 13.578125 25.410156 14.707031 25.996094 L 15.664062 26.457031 L 14.535156 26.476562 C 13.4375 26.476562 13.402344 26.5 13.519531 26.921875 C 13.910156 28.234375 15.449219 29.625 17.164062 30.230469 L 18.375 30.65625 L 17.324219 31.296875 C 15.761719 32.226562 13.929688 32.75 12.101562 32.789062 C 11.222656 32.808594 10.5 32.890625 10.5 32.953125 C 10.5 33.152344 12.878906 34.28125 14.265625 34.726562 C 18.417969 36.039062 23.355469 35.472656 27.0625 33.234375 C 29.695312 31.640625 32.332031 28.476562 33.558594 25.410156 C 34.222656 23.777344 34.886719 20.792969 34.886719 19.359375 C 34.886719 18.433594 34.941406 18.308594 36.035156 17.203125 C 36.679688 16.558594 37.285156 15.851562 37.402344 15.648438 C 37.597656 15.265625 37.578125 15.265625 36.582031 15.609375 C 34.921875 16.210938 34.691406 16.132812 35.511719 15.226562 C 36.117188 14.582031 36.835938 13.410156 36.835938 13.070312 C 36.835938 13.007812 36.542969 13.105469 36.210938 13.289062 C 35.859375 13.488281 35.082031 13.792969 34.496094 13.972656 L 33.441406 14.316406 L 32.484375 13.652344 C 31.960938 13.289062 31.21875 12.886719 30.828125 12.765625 C 29.832031 12.484375 28.3125 12.523438 27.414062 12.84375 Z M 27.410156 12.84375 "/>
  </g>
</svg>

<svg xmlns="http://www.w3.org/2000/svg" width="64" height="64" viewBox="0 0 48 48">
 <g>
  <path d="m 27.41 12.844 c -2.441 0.91 -3.98 3.25 -3.809 5.809 l 0.063 0.988 l -0.977 -0.121 c -3.551 -0.461 -6.652 -2.035 -9.285 -4.676 l -1.289 -1.313 l -0.332 0.969 c -0.703 2.156 -0.254 4.438 1.211 5.969 c 0.777 0.844 0.605 0.969 -0.742 0.461 c -0.469 -0.16 -0.879 -0.281 -0.918 -0.219 c -0.133 0.141 0.332 1.977 0.703 2.703 c 0.508 1.01 1.543 1.996 2.672 2.582 l 0.957 0.461 l -1.129 0.02 c -1.098 0 -1.133 0.023 -1.016 0.445 c 0.391 1.313 1.93 2.703 3.645 3.309 l 1.211 0.426 l -1.051 0.641 c -1.563 0.93 -3.395 1.453 -5.223 1.492 c -0.879 0.02 -1.602 0.102 -1.602 0.164 c 0 0.199 2.379 1.328 3.766 1.773 c 4.152 1.313 9.09 0.746 12.797 -1.492 c 2.633 -1.594 5.27 -4.758 6.496 -7.824 c 0.664 -1.633 1.328 -4.617 1.328 -6.05 c 0 -0.926 0.055 -1.051 1.148 -2.156 c 0.645 -0.645 1.25 -1.352 1.367 -1.555 c 0.195 -0.383 0.176 -0.383 -0.82 -0.039 c -1.66 0.602 -1.891 0.523 -1.07 -0.383 c 0.605 -0.645 1.324 -1.816 1.324 -2.156 c 0 -0.063 -0.293 0.035 -0.625 0.219 c -0.352 0.199 -1.129 0.504 -1.715 0.684 l -1.055 0.344 l -0.957 -0.664 c -0.523 -0.363 -1.266 -0.766 -1.656 -0.887 c -0.996 -0.281 -2.516 -0.242 -3.414 0.078 m -0.004 0" style="fill:#00abec;fill-opacity:1;stroke:none;fill-rule:nonzero"/>
 </g>
</svg>
